X:1
T:Title
%%score { 1 | 2 }
L:1/8
M:3/4
K:G
V:1 treble nm="Grand Piano"
V:2 bass 
V:1
 z2 z2[Q:1/4=100] D>D | G3 F A>G | B2 .B2 B>B | B3 [^CA] [CG]E | A4 B>A | [B,G]3 [B,G] [DB][=Fd] | %6
 [=Fd]2 [Ec]2 [DEB]>[CEA] | [B,DG]3 [B,DG] [A,DF][CFA] | [B,G]4 [FA]>[FA] | [FA]3 [GB] [FA]>[EG] | %10
 F4 AA | AG F2 [^CE]2 | D4 D>D | C3 D B>A | [B,G]4 Bd | [=Fd][Ec] E2 ^F2 |[M:2/4] G4 |] %17
V:2
 z2 z2 [G,B,]>[G,B,] | [G,B,D]3 [A,CD] [F,CD]>[G,B,D] | [G,D]2 .[G,D]2 [G,D]>[G,D] | %3
 [E,G,^C]3 [A,,E,] [A,,A,][G,A,C] | [F,A,D]4 [D,G,D]>[D,F,C] | [G,,G,]3 [G,,G,] [G,,G,][G,,B,] | %6
 [C,G,]2 [C,G,]2 C,>C, | D,3 D, D,D, | G,,4 [D,D]>[D,D] | [D,D]3 [D,D] [D,D]>[D,A,] | %10
 [D,A,D]4 [D,F,D][F,A,D] | [G,B,E][G,B,E] [A,D]2 [A,,G,]2 | [D,F,]4 [D,G,B,]>[D,B,] | %13
 [D,F,A,]3 [D,B,] [D,G,D]>[D,F,C] | [G,,G,]4[K:treble] [G,D][G,B,=F] | %15
 [C,G,][C,G,] [C,G,]2 [D,CD]2 |[M:2/4] [G,B,D]4 |] %17

